X: 1714
T: the Belles of Clonallan   #2
R: hornpipe, reel
%S :s:4 b:16(4+4+4+4)
B: O'Neill's 1850 #1714
Z: "Transcribed by Bob Safranek, rjs@gsp.org"
Z: A.LEE WORMAN
Z: Compacted via repeats and multiple endings [JC]
M: C|
L: 1/8
K: D
|: DDD2 DFAF | dFAF dFAF |[1,3 EEE2 EGBG | eGBG eGFE :|[2,4 Egfg edce | d2d2 d2z2 :|
|: fdd2 fdad | fddf [1,3 a2ed | cAA2 cAeA | cAAc egfe :|[2,4 a2A2 | Bbag fedc | d2d2 d2z2 :|
